src/svg/code-circle.svg

<?xml version="1.0" encoding="UTF-8"?>
<svg width="128px" height="128px" viewBox="0 0 128 128" version="1.1" xmlns="http://www.w3.org/2000/svg" xmlns:xlink="http://www.w3.org/1999/xlink">
    <!-- Generator: Sketch 47.1 (45422) - http://www.bohemiancoding.com/sketch -->
    <title>code-circle</title>
    <desc>Created with Sketch.</desc>
    <defs></defs>
    <g id="Icons" stroke="none" stroke-width="1" fill="none" fill-rule="evenodd">
        <g id="code-circle">
            <circle id="Oval-15" fill="#27AE60" cx="64" cy="64" r="64"></circle>
            <path d="M73.9085885,35.4482296 C72.3446052,35.5562196 70.9948588,36.5872863 70.4758962,38.0704518 L52.1682038,87.8925822 C51.679099,89.2099991 51.9281483,90.688959 52.8215374,91.772352 C53.7149264,92.855745 55.1169281,93.3789781 56.499422,93.1449542 C57.8819159,92.9109304 59.0348682,91.9552035 59.5239731,90.6377867 L77.8316654,40.8155907 C78.3258476,39.5592324 78.1426623,38.1365343 77.3464501,37.047196 C76.550238,35.9578576 75.2523274,35.354193 73.9085885,35.4482296 L73.9085885,35.4482296 Z M43.7908654,44.6670189 C43.1819928,44.7215543 42.5942532,44.9179797 42.0745192,45.24063 L15.9206731,60.9739633 C14.7322809,61.6832536 14.00413,62.9674689 14.00413,64.3541061 C14.00413,65.7407433 14.7322809,67.0249587 15.9206731,67.7342489 L42.0745192,83.4675822 C43.2814555,84.2433372 44.8143146,84.2973058 46.0725518,83.6083442 C47.3307889,82.9193826 48.1140455,81.5971993 48.1154567,80.1598004 C48.1168678,78.7224016 47.3362088,77.3986748 46.0793269,76.7072311 L25.5649038,64.3745267 L46.0793269,52.0009811 C47.6791331,51.0841158 48.426961,49.1745572 47.8767576,47.4112894 C47.3265543,45.6480217 45.6266034,44.5062575 43.7908654,44.6670189 L43.7908654,44.6670189 Z M85.6778192,44.6670189 C83.9431075,44.7586242 82.4749784,45.9830092 82.0692364,47.6764916 C81.6634944,49.3699741 82.4167397,51.1293654 83.9206731,52.0009811 L104.435096,64.3745267 L83.9206731,76.7072311 C82.6637912,77.3986748 81.8831322,78.7224016 81.8845433,80.1598004 C81.8859545,81.5971993 82.6692111,82.9193826 83.9274482,83.6083442 C85.1856854,84.2973058 86.7185445,84.2433372 87.9254808,83.4675822 L114.079327,67.7342489 C115.267719,67.0249587 115.99587,65.7407433 115.99587,64.3541061 C115.99587,62.9674689 115.267719,61.6832536 114.079327,60.9739633 L87.9254808,45.24063 C87.2510351,44.8266948 86.4675749,44.626753 85.6778192,44.6670189 L85.6778192,44.6670189 Z" id="Shape" fill="#FFFFFF" fill-rule="nonzero"></path>
        </g>
    </g>
</svg>

<svg width="128" height="128" xmlns="http://www.w3.org/2000/svg"><path d="M64 128c35.346 0 64-28.654 64-64 0-35.346-28.654-64-64-64C28.654 0 0 28.654 0 64c0 35.346 28.654 64 64 64zm9.909-92.552a3.925 3.925 0 0 0-3.433 2.622L52.168 87.893a3.943 3.943 0 0 0 .654 3.88 3.919 3.919 0 0 0 6.702-1.135l18.308-49.822a3.942 3.942 0 0 0-.486-3.769 3.92 3.92 0 0 0-3.437-1.599zM43.79 44.667a3.917 3.917 0 0 0-1.716.574L15.92 60.974a3.936 3.936 0 0 0-1.917 3.38c0 1.387.728 2.671 1.917 3.38l26.154 15.734c1.206.775 2.74.83 3.998.14a3.935 3.935 0 0 0 2.042-3.448 3.935 3.935 0 0 0-2.036-3.453L25.565 64.375 46.079 52a3.938 3.938 0 0 0 1.798-4.59 3.924 3.924 0 0 0-4.086-2.744zm41.887 0a3.926 3.926 0 0 0-3.609 3.01A3.938 3.938 0 0 0 83.921 52l20.514 12.374-20.514 12.332a3.935 3.935 0 0 0-2.036 3.453 3.935 3.935 0 0 0 2.042 3.448 3.915 3.915 0 0 0 3.998-.14l26.154-15.734a3.936 3.936 0 0 0 1.917-3.38c0-1.387-.728-2.67-1.917-3.38L87.925 45.241a3.916 3.916 0 0 0-2.247-.574z" fill="#D8D8D8" fill-rule="evenodd"/></svg>
